src/components/ProductFeature/images/icons/retention.svg

<svg width="18" height="18" viewBox="0 0 18 18" fill="none" xmlns="http://www.w3.org/2000/svg">
<path fill-rule="evenodd" clip-rule="evenodd" d="M18 0.0098877V4.50503H13.5049V0.0098877L18 0.0098877ZM11.7112 4.50503L9.01044 4.50503C6.5313 4.50503 4.5153 6.54065 4.5153 9.00017C4.5153 11.4793 6.53112 13.4953 9.01044 13.4953H11.7112V17.9904H9.01044C4.05198 17.9904 0.000540478 13.9593 0.000540478 9.00035C0.000540478 4.06151 4.05198 0.0102477 9.01044 0.0102477L11.7112 0.0102477V4.50503ZM13.5048 13.4951H18V17.9903H13.5048V13.4951Z" fill="#A970DC"/>
</svg>

<svg fill="none" viewBox="0 0 18 18"><path fill="#A970DC" fill-rule="evenodd" d="M18 .01v4.495h-4.495V.01H18zm-6.289 4.495h-2.7C6.53 4.505 4.514 6.541 4.514 9a4.5 4.5 0 004.495 4.495h2.701v4.495h-2.7C4.051 17.99 0 13.96 0 9 0 4.062 4.052.01 9.01.01h2.7v4.495zm1.794 8.99H18v4.495h-4.495v-4.495z" clip-rule="evenodd"/></svg>
